!!!!SEGMENT: Bau1001a-Missa_Inviolata-Kyrie.krn
!!!id: Bau1001a
!!!OTL: Kyrie
!!!AGN: Mass; Kyrie
!!!SCT: Ory
!!!voices: 5
!!!COM: Noel Bauldeweyn
!!!OPR: Missa Inviolata
**kern	**kern	**kern	**kern	**kern
*part5	*part4	*part3	*part2	*part1
*staff5	*staff4	*staff3	*staff2	*staff1
*I"Bassus	*I"Tenor II	*I"Tenor I	*I"Altus	*I"Superius
*I'B	*I'T. II	*I'T. I	*I'A	*I'S
*clefF4	*clefGv2	*clefGv2	*clefGv2	*clefG2
*k[]	*k[]	*k[]	*k[]	*k[]
*C:	*C:	*C:	*C:	*C:
*M3/1	*M3/1	*M3/1	*M3/1	*M3/1
*met(O)	*met(O)	*met(O)	*met(O)	*met(O)
!!section: Kyrie I
!!!OMD: Kyrie I
=1	=1	=1	=1	=1
1.G	1.G	0.r	0.r	0.r
2C	2G	.	.	.
2E	2G	.	.	.
2F	2A	.	.	.
=2	=2	=2	=2	=2
2D	2B	0.r	2r	2r
2.C	1c	.	1g	1g
4D	.	.	.	.
1E	4B	.	2c	2g
.	4A	.	.	.
.	2B	.	2e	2g
4AA	2A	.	2f	2a
4FF	.	.	.	.
=3	=3	=3	=3	=3
2GG	2r	0.r	2d	2b
1AA	1A	.	2c	1cc
.	.	.	1e	.
2.E	4G	.	.	4b
.	4F	.	.	4a
.	2G	.	2r	2b
4D	.	.	.	.
2F	2F	.	2A	[2a
=4	=4	=4	=4	=4
1E	1G	0.r	2B	4a]
.	.	.	.	4g
.	.	.	2c	1g
0D	0A	.	0d	.
.	.	.	.	4f#i
.	.	.	.	4e
.	.	.	.	1f#i
=5	=5	=5	=5	=5
1.E	1.G	0.G	1B	1g
.	.	.	1.e	2r
2C	2E	.	.	1g
[1C	2E	.	.	.
.	[2e	.	2c	2e
=6	=6	=6	=6	=6
1C]	4e]	1G	1c	2.e
.	4d	.	.	.
.	1c	.	.	.
.	.	.	.	4f
0GG	.	0G	0d	0g
.	4B	.	.	.
.	4A	.	.	.
.	1B	.	.	.
=7	=7	=7	=7	=7
0.r	2c	0.A	2c	2e
.	2C	.	1e	2.a
.	1D	.	.	.
.	.	.	.	4g
.	.	.	1d	2f
.	1A	.	.	1e
.	.	.	2c	.
=8	=8	=8	=8	=8
0GG	0D	0B	2d	1d
.	.	.	2.d	.
.	.	.	.	1r
.	.	.	4c	.
.	.	.	4B	.
.	.	.	4A	.
1G	1r	1r	2B	1d
.	.	.	[2G	.
=9	=9	=9	=9	=9
2.C	1r	1.c	2G]	2.e
.	.	.	2g	.
4D	.	.	.	4f
2E	1r	.	2e	2g
2F	.	4B	2d	1a
.	.	4A	.	.
1E	2r	1B	1e	.
.	2E	.	.	2g
=10	=10	=10	=10	=10
1r	2.F	1A	2.c	2a
.	.	.	.	1f
.	4G	.	4B	.
1r	2A	1r	2c	.
.	2B	.	1d	4e
.	.	.	.	4d
2r	1A	1r	.	1e
2AA	.	.	2c#i	.
=11	=11	=11	=11	=11
2.BB	2D	2r	2.d	1d
.	1d	1B	.	.
4C	.	.	4e	.
2D	.	.	2f	1r
2E	2c	4A	1g	.
.	.	4G	.	.
1D	1d	1A	.	1a
.	.	.	2f#i	.
=12	=12	=12	=12	=12
2GG	2r	1G	2.g	1.b
1G	1B	.	.	.
.	.	.	8fL	.
.	.	.	8eJ	.
.	.	1r	2d	.
2E	2c	.	2e	2g
2F	2A	1r	1d	2a
2G	2G	.	.	2b
=13	=13	=13	=13	=13
2C	1c	0.A	2r	2.cc
2.F	.	.	2c	.
.	.	.	.	4b
.	1r	.	2d	4a
4E	.	.	.	4g
2C	.	.	2e	1g
1D	2r	.	[1d	.
.	2A	.	.	2f#i
=14	=14	=14	=14	=14
1GG	2B	0.G	2d]	1.g
.	2.G	.	2d	.
1C	.	.	2e	.
.	4F	.	.	.
.	1E	.	2c	2a
1BB	.	.	1d	1b
.	2D	.	.	.
=15	=15	=15	=15	=15
1.AA	2E	0.A	1c	2.cc
.	2.e	.	.	.
.	.	.	.	4b
.	.	.	1e	4cc
.	4d	.	.	4b
2C	4c	.	.	4a
.	4B	.	.	4g
1D	4A	.	[1d	4f
.	4G	.	.	4e
.	2A	.	.	2f
=16	=16	=16	=16	=16
2r	1G	[0.Bl	1d]	[0.gl
2G	.	.	.	.
2.E	2r	.	0e	.
.	2G	.	.	.
4F	.	.	.	.
1G	2.E	.	.	.
.	4F	.	.	.
=17	=17	=17	=17	=17
[0.GGl	1G	0.B_	2r	0.g_
.	.	.	2d	.
.	0D	.	2.B	.
.	.	.	4c	.
.	.	.	1d	.
=	=	=	=	=
00GG]	00D	00B]	00G	00g]
=||	=||	=||	=||	=||
*M2/1	*M2/1	*M2/1	*M2/1	*M2/1
*met(C|)	*met(C|)	*met(C|)	*met(C|)	*met(C|)
!!section: Christe
!!!OMD: Christe
0GG	0G	[0G	0d	0r
=18	=18	=18	=18	=18
0C	0E	0G]	1e	0r
.	.	.	1c	.
=19	=19	=19	=19	=19
1BB	1D	0B	1d	0r
1GG	[1G	.	1B	.
=20	=20	=20	=20	=20
0AA	2G]	0c	0A	0r
.	4F#i	.	.	.
.	4E	.	.	.
.	2F#i	.	.	.
.	4G	.	.	.
.	4F#i	.	.	.
=21	=21	=21	=21	=21
0GG	0G	0B	1r	0g
.	.	.	1d	.
=22	=22	=22	=22	=22
0r	1r	0A	1e	0cc
.	1F	.	1f	.
=23	=23	=23	=23	=23
0r	1G	0r	1d	1b
.	1E	.	[1g	1g
=24	=24	=24	=24	=24
1r	0D	0r	2g]	0a
.	.	.	4f	.
.	.	.	4e	.
1F	.	.	1f	.
=25	=25	=25	=25	=25
1G	0r	1B	2e	1g
.	.	.	1d	.
1E	.	1G	.	2r
.	.	.	2c#i	[2g
=26	=26	=26	=26	=26
0D	1r	0A	0d	2g]
.	.	.	.	4f#i
.	.	.	.	4e
.	2r	.	.	1f#i
.	2A	.	.	.
=27	=27	=27	=27	=27
0GG	1.B	0G	0d	2.g
.	.	.	.	4a
.	.	.	.	4b
.	.	.	.	4cc
.	2G	.	.	[2dd
=28	=28	=28	=28	=28
1r	2B	0r	1r	4dd]
.	.	.	.	4cc
.	2c	.	.	2cc
1GG	1d	.	1g	4b
.	.	.	.	4a
.	.	.	.	2b
=29	=29	=29	=29	=29
1C	1c	0r	1e	1cc
2D	2B	.	2d	1r
2C	[2c	.	[2e	.
=30	=30	=30	=30	=30
1E	4c]	0r	4e]	1r
.	4B	.	4d	.
.	4A	.	1g	.
.	4G	.	.	.
1D	1A	.	.	2r
.	.	.	2f#i	2a
=31	=31	=31	=31	=31
1GG	1G	0r	2.g	2b
.	.	.	.	2dd
.	.	.	4f	.
1r	1C	.	1e	2cc
.	.	.	.	[2a
=32	=32	=32	=32	=32
0r	0D	0A	0d	4a]
.	.	.	.	4g
.	.	.	.	1g
.	.	.	.	2f#i
=33	=33	=33	=33	=33
0C	0E	0G	1c	1g
.	.	.	[1G	2e
.	.	.	.	2c
=34	=34	=34	=34	=34
0AA	0C	0A	2G]	0cc
.	.	.	4F#i	.
.	.	.	4E	.
.	.	.	1F#i	.
=35	=35	=35	=35	=35
[0GGl	0D	[0Bl	1G	1b
.	.	.	1d	1g
=	=	=	=	=
00GG]	00G	00B]	00d	00g
=||	=||	=||	=||	=||
*M3/1	*M3/1	*M3/1	*M3/1	*M3/1
*met(O|)	*met(O|)	*met(O|)	*met(O|)	*met(O|)
!!section: Kyrie II
!!!OMD: Kyrie II
1GG	2.D	0.r	1B	0.r
.	4E	.	.	.
2D	2F	.	2A	.
2E	1G	.	2G	.
1D	.	.	1A	.
.	2F	.	.	.
=36	=36	=36	=36	=36
1GG	1G	1B	2G	2.d
.	.	.	1d	.
.	.	.	.	4e
1r	2D	2A	.	2f
.	2E	2G	2c	1g
1r	1D	1A	1d	.
.	.	.	.	2f
=37	=37	=37	=37	=37
1G	2r	1G	2.d	2g
.	2.d	.	.	2b
.	.	.	4e	.
2D	.	1r	2f	2a
.	4c	.	.	.
2E	4c	.	1g	2g
.	4B	.	.	.
1D	2d	1r	.	1a
.	[2D	.	2f#i	.
=38	=38	=38	=38	=38
2BB	2D]	1B	1g	1g
2GG	2G	.	.	.
2AA	2C	2A	2r	2r
2BB	2D	2G	2d	1g
2C	2E	1A	2c	.
2D	2F	.	2A	2f
=39	=39	=39	=39	=39
1GG	2r	1G	2.B	1.g
.	2D	.	.	.
.	.	.	4G	.
1r	2E	1r	2g	.
.	2F	.	2f	2a
1r	2G	1r	2.d	2.b
.	[2B	.	.	.
.	.	.	4e	4cc
=40	=40	=40	=40	=40
0.r	2B]	0.r	4f	4dd
.	.	.	4g	4b
.	1A	.	4c	2.cc
.	.	.	4d	.
.	.	.	4e	.
.	.	.	4f	4b
.	4G	.	1g	2.b
.	4A	.	.	.
.	4B	.	.	.
.	4c	.	.	4a
.	2d	.	2f#i	2a
=41	=41	=41	=41	=41
1GG	2r	1r	1g	1b
.	2G	.	.	.
2D	2F	2r	1r	1r
2C	2E	2A	.	.
1BB	2.D	2.B	1r	1r
.	4E	4c	.	.
=42	=42	=42	=42	=42
2BB	4F	4d	0.r	0.r
.	4G	4B	.	.
1AA	4C	2.c	.	.
.	4D	.	.	.
.	4E	.	.	.
.	4F	4B	.	.
4GG	1G	1B	.	.
4AA	.	.	.	.
4BB	.	.	.	.
4C	.	.	.	.
2D	2F	2A	.	.
=43	=43	=43	=43	=43
2.GG	1G	1B	1.d	2r
.	.	.	.	1g
4AA	.	.	.	.
2BB	2r	1r	.	.
2C	2G	.	2c	2e
1D	2F	1r	2A	2.f
.	[2A	.	[2f	.
.	.	.	.	4g
=44	=44	=44	=44	=44
1F	2A]	0.r	4f]	4a
.	.	.	4e	4b
.	2F	.	1d	2.a
1E	1G	.	.	.
.	.	.	.	4g
.	.	.	2c#i	1g
1D	1A	.	[1d	.
.	.	.	.	2f#i
=45	=45	=45	=45	=45
1r	1G	0.r	1d]	0g
2r	2r	.	2r	.
2E	2G	.	2g	.
2F	2A	.	2f	1r
2G	2B	.	2d	.
=46	=46	=46	=46	=46
1C	2c	0.r	2e	2r
.	2E	.	2G	2g
1r	2F	.	2A	2f
.	2G	.	2B	2d
2r	2C	.	2c	1e
2E	2G	.	2g	.
=47	=47	=47	=47	=47
2F	2A	1r	2f	1r
2G	2B	.	2d	.
1C	2c	1r	2e	2r
.	2E	.	2G	2g
2r	2F	1d	2A	2f
2BB	2G	.	2B	2d
=48	=48	=48	=48	=48
1C	1C	1c	1G	1e
1D	1F	1A	1r	1f
1GG	1G	1B	1g	2d
.	.	.	.	[2dd
=49	=49	=49	=49	=49
1BB	1D	1d	1f	4dd]
.	.	.	.	4cc
.	.	.	.	2b
1C	1E	1c	1e	2a
.	.	.	.	1g
1D	1F	1A	1d	.
.	.	.	.	2f#i
=50	=50	=50	=50	=50
2.GG	2D	[0.Bl	2r	[0.gl
.	2.G	.	2d	.
4AA	.	.	.	.
2BB	.	.	2.G	.
.	4F	.	.	.
2GG	4G	.	.	.
.	4F	.	4A	.
1G	4E	.	2B	.
.	4D	.	.	.
.	2E	.	2G	.
=51	=51	=51	=51	=51
00GGl	00Dl	00B]	00dl	00g]
==	==	==	==	==
*-	*-	*-	*-	*-
!!!system-decoration: [*]
!!!RDF**kern: i = editorial accidental
!!!RDF**kern: l = terminal long
!!!ENC: Benjamin Ory
!!!END: 2022/3/7
!!!EED: Benjamin Ory
!!!EEV: 2022/03/07
!!!YEC: Copyright 2022 Benjamin Ory, All Rights Reserved
!!!ONB: Translated from MusicXML on 2022/03/07
